images/swiper-arrow-left.svg

<svg width="31" height="31" viewBox="0 0 31 31" fill="none" xmlns="http://www.w3.org/2000/svg">
<path d="M13.2671 15.4695L20.7144 8.02808C21.2651 7.4773 21.2651 6.58667 20.7144 6.04175C20.1636 5.49097 19.273 5.49683 18.7222 6.04175L10.2847 14.4734C9.75147 15.0066 9.73975 15.8621 10.2437 16.4128L18.7163 24.9031C18.9917 25.1785 19.355 25.3132 19.7124 25.3132C20.0698 25.3132 20.4331 25.1785 20.7085 24.9031C21.2593 24.3523 21.2593 23.4617 20.7085 22.9167L13.2671 15.4695Z" fill="#FFFAFA"/>
</svg>

<svg width="31" height="31" fill="none" xmlns="http://www.w3.org/2000/svg"><path d="M13.267 15.47l7.447-7.442a1.4 1.4 0 000-1.986 1.413 1.413 0 00-1.992 0l-8.437 8.431a1.404 1.404 0 00-.041 1.94l8.472 8.49c.276.276.639.41.996.41.358 0 .721-.134.997-.41a1.4 1.4 0 000-1.986l-7.442-7.448z" fill="snow"/></svg>
